X:273
T: Up in the Morning Early
N: O'Farrell's Pocket Companion v.3 (Sky ed. p.125)
N: "Scotch"
M: 6/4
L: 1/8
R: blank
Q: 280
K: Am
E2| A4B2c4d2| e3fg2G4G2| A3BA2e4dB| A6e4 :|
z2| c3dc2c4c2| d3ed2d6| e3fg2a2g2f2|e6g4c2|
c3dc2c4c2|d3eg2Ha4gf| e3dc2B2A2G2| A6e4||
